X: 4012
T: WEE BIT COGIE
R: Reel.
%R: reel
B: James Kerr "Merry Melodies" v.4 p.04 #13
Z: 2016 John Chambers <jc:trillian.mit.edu>
M: C|
L: 1/8
K: A
uf |\
eAcA eAfA | eAcA Bcdf |\
eAcA eaga | fdBd cAA :|\
g |\
a2(ed) cAfg | a2(ga) fdBg |
a2(ed) cde=g | fdBd cAAg |\
a2 (3(gag) (3(fgf) (3(efe) | d2(3(cdc) (BE)E2 |\
BdAe dfBa | gefg a3 |]

%%sep 1 1 500
%%sep 1 1 500

